dist/img/svg/play_btn.svg

<svg width="18" height="18" viewBox="0 0 18 18" fill="none" xmlns="http://www.w3.org/2000/svg">
<path d="M15.8111 6.43503V11.565C15.8111 12.405 15.3611 13.185 14.6336 13.6125L10.1786 16.185C9.4511 16.605 8.5511 16.605 7.8161 16.185L3.3611 13.6125C2.6336 13.1925 2.18359 12.4125 2.18359 11.565V6.43503C2.18359 5.59503 2.6336 4.81499 3.3611 4.38749L7.8161 1.815C8.5436 1.395 9.4436 1.395 10.1786 1.815L14.6336 4.38749C15.3611 4.81499 15.8111 5.58753 15.8111 6.43503Z" stroke="currentColor" stroke-width="1.5" stroke-linecap="round" stroke-linejoin="round"/>
<path d="M7.3125 9.00017V8.10016C7.3125 6.94516 8.13001 6.47269 9.12751 7.05019L9.90749 7.50017L10.6875 7.95015C11.685 8.52765 11.685 9.47269 10.6875 10.0502L9.90749 10.5002L9.12751 10.9502C8.13001 11.5277 7.3125 11.0552 7.3125 9.90018V9.00017Z" stroke="currentColor" stroke-width="1.5" stroke-miterlimit="10" stroke-linecap="round" stroke-linejoin="round"/>
</svg>

<svg width="18" height="18" viewBox="0 0 18 18" fill="none" xmlns="http://www.w3.org/2000/svg"><path d="M15.811 6.435v5.13c0 .84-.45 1.62-1.177 2.048l-4.455 2.572c-.728.42-1.628.42-2.363 0l-4.455-2.572a2.362 2.362 0 01-1.177-2.048v-5.13c0-.84.45-1.62 1.177-2.048l4.455-2.572a2.372 2.372 0 012.363 0l4.455 2.572a2.371 2.371 0 011.177 2.048z" stroke="currentColor" stroke-width="1.5" stroke-linecap="round" stroke-linejoin="round"/><path d="M7.313 9v-.9c0-1.155.817-1.627 1.815-1.05l.78.45.78.45c.997.578.997 1.523 0 2.1l-.78.45-.78.45c-.998.578-1.816.105-1.816-1.05V9z" stroke="currentColor" stroke-width="1.5" stroke-miterlimit="10" stroke-linecap="round" stroke-linejoin="round"/></svg>
